X:103
T:O'Gallagher's Frolics
Z: id:dc-jig-84
M:6/8
L:1/8
K:D Minor
A,|DED FED|ABA cAG|ABA A2G|FAF GEC|!
DED FED|ABA cAG|AGF EDE|FDD D2:|!
A|d2e fed|f2g agf|cef gec|egg gec|!
ded fed|ced cAG|AGF EDE|FDD D2:|!

